svg/credit_card_search.svg

<svg xmlns="http://www.w3.org/2000/svg" viewBox="0 0 24 24"><path d="M11.82 11c-2.42 2.5-2.42 6.5 0 9H4a2 2 0 0 1-2-2V6a2 2 0 0 1 2-2h16c1.11 0 2 .89 2 2v6.06c-.26-.41-.55-.8-.9-1.16-.34-.33-.71-.63-1.1-.87V8H4v3zm11.57 10L22 22.39l-3.12-3.07c-.69.43-1.51.68-2.38.68-2.5 0-4.5-2-4.5-4.5s2-4.5 4.5-4.5 4.5 2 4.5 4.5c0 .88-.25 1.71-.69 2.4zM19 15.5a2.5 2.5 0 0 0-5 0 2.5 2.5 0 0 0 5 0"/></svg>

<?xml version="1.0" encoding="UTF-8"?><!DOCTYPE svg PUBLIC "-//W3C//DTD SVG 1.1//EN" "http://www.w3.org/Graphics/SVG/1.1/DTD/svg11.dtd"><svg xmlns="http://www.w3.org/2000/svg" xmlns:xlink="http://www.w3.org/1999/xlink" version="1.1" id="mdi-credit-card-search" width="24" height="24" viewBox="0 0 24 24"><path d="M11.82 11C9.4 13.5 9.4 17.5 11.82 20H4C2.9 20 2 19.11 2 18V6C2 4.89 2.9 4 4 4H20C21.11 4 22 4.89 22 6V12.06C21.74 11.65 21.45 11.26 21.1 10.9C20.76 10.57 20.39 10.27 20 10.03V8H4V11H11.82M23.39 21L22 22.39L18.88 19.32C18.19 19.75 17.37 20 16.5 20C14 20 12 18 12 15.5S14 11 16.5 11 21 13 21 15.5C21 16.38 20.75 17.21 20.31 17.9L23.39 21M19 15.5C19 14.12 17.88 13 16.5 13S14 14.12 14 15.5 15.12 18 16.5 18 19 16.88 19 15.5Z" /></svg>
